X: 32
T:Millisons Jegge
T:Impropriety
C: (arr. Irfona Larkin)
M:6/8
L:1/8
Q:3/8=110
R:Jig
K:DDor
V:1
|:a|"Dm"a>gf e2d|"Am"c2d e2a|"Dm"a>gf "Am"e2d|"Dm"c3 d2:|
|:A|"Am"AcA AcA|AcA c2c|"Dm"dfd dfd|dfd f2f|
"Em"ege ege|ege g2a|"Dm"a>gf "Am"e2d|"A"^c3 "Dm"d2:|
V:2
|:f|f>ed c2A|A2Bc2e|f2d cBA| E2AF2:|
|:E|E2C  EAE|E2C E2A|A2F FAF|A2F A2A|
B2GB2G|GBGB2F|F2D C2B,|A,2E F2:|
V:3
|:D|D2A,A,2F|E2D A,2C|D2A, A,B,D|E2C D2:|
|:A,|A,EC A,3|A,EC A,3|FDA, D3|FDA, D3|
GEB, E3|GEB, E2D|D2A, A,B,D|E2^C D2:|
